icons/tango/actions/format-text-italic.svg

<?xml version="1.0" encoding="UTF-8" standalone="no"?><!-- Created with Inkscape (http://www.inkscape.org/) --><svg xmlns:dc="http://purl.org/dc/elements/1.1/" xmlns:cc="http://creativecommons.org/ns#" xmlns:rdf="http://www.w3.org/1999/02/22-rdf-syntax-ns#" xmlns:svg="http://www.w3.org/2000/svg" xmlns="http://www.w3.org/2000/svg" xmlns:xlink="http://www.w3.org/1999/xlink" xmlns:sodipodi="http://sodipodi.sourceforge.net/DTD/sodipodi-0.dtd" xmlns:inkscape="http://www.inkscape.org/namespaces/inkscape" width="48" height="48" id="svg1306" version="1.0"><defs><linearGradient id="3" gradientUnits="userSpaceOnUse" x1="28.13" y1="38.963" x2="28.13" y2="10.25"><stop stop-color="#2a5387"/><stop offset="1" stop-color="#3465a4"/></linearGradient><linearGradient id="2" gradientUnits="userSpaceOnUse" x1="35.12" y1="29.5" x2="35.916" y2="6.399"><stop stop-color="#fff"/><stop offset="1" stop-color="#fff" stop-opacity="0"/></linearGradient><linearGradient id="1" gradientUnits="userSpaceOnUse" x1="26.847" y1="16.433" x2="27.08" y2="62.926"><stop stop-color="#fff"/><stop offset="1" stop-color="#b3b3b3" stop-opacity="0"/></linearGradient><linearGradient id="0" gradientUnits="userSpaceOnUse" x1="35.03" y1="37.445" x2="20.334" y2="10.46"><stop stop-color="#497fc6"/><stop offset="1" stop-color="#90b3d9"/></linearGradient><radialGradient id="4" gradientUnits="userSpaceOnUse" gradientTransform="matrix(1 0 0 .53672 0 16.873)" cx="24.837" cy="36.421" fx="24.837" fy="36.421" r="15.645"><stop/><stop offset="1" stop-opacity="0"/></radialGradient></defs><sodipodi:namedview pagecolor="#ffffff" bordercolor="#666666" borderopacity="0.20784314" showgrid="false" showguides="false" stroke="#204a87" fill="#2e3436" showborder="true"><sodipodi:guide orientation="vertical" position="14.406922"/><sodipodi:guide orientation="horizontal" position="41.565351"/><sodipodi:guide orientation="vertical" position="29.03324"/><sodipodi:guide orientation="vertical" position="19.964923"/><sodipodi:guide orientation="horizontal" position="31.739108"/><sodipodi:guide orientation="horizontal" position="28.59445"/><sodipodi:guide orientation="vertical" position="24.133423"/><sodipodi:guide orientation="horizontal" position="6.0450673"/><inkscape:grid type="xygrid" originx="0px" originy="0px" spacingx="0.5px" spacingy="0.5px" color="#00f" empcolor="#0000ff" opacity=".2" empopacity="0.4" empspacing="2" visible="true" enabled="true"/></sodipodi:namedview><metadata><rdf:RDF><cc:Work><dc:format>image/svg+xml</dc:format><dc:type rdf:resource="http://purl.org/dc/dcmitype/StillImage"/><dc:title>Italic</dc:title><dc:date>2006-01-04</dc:date><dc:creator><cc:Agent><dc:title>Lapo Calamandrei</dc:title></cc:Agent></dc:creator><dc:source>http://tango-project.org</dc:source><dc:subject><rdf:Bag><rdf:li>text</rdf:li><rdf:li>a</rdf:li><rdf:li>italic</rdf:li><rdf:li>cursive</rdf:li><rdf:li>write</rdf:li><rdf:li>letter</rdf:li></rdf:Bag></dc:subject><cc:license rdf:resource="http://creativecommons.org/licenses/publicdomain/"/></cc:Work><cc:License rdf:about="http://creativecommons.org/licenses/publicdomain/"><cc:permits rdf:resource="http://creativecommons.org/ns#Reproduction"/><cc:permits rdf:resource="http://creativecommons.org/ns#Distribution"/><cc:permits rdf:resource="http://creativecommons.org/ns#DerivativeWorks"/></cc:License></rdf:RDF></metadata><g fill-rule="evenodd"><path d="M40.481863 36.421127A15.644737 8.396894 0 1 1 9.192389 36.421127 15.644737 8.396894 0 1 1 40.481863 36.421127" transform="matrix(1.47014 0 0 .53547-12.764 20.915)" marker="none" opacity=".15" color="#000" stroke-miterlimit="10" fill="url(#4)"/><path d="m34 4.5l-30 37h6.5l6.491-8h19.509v8h5v-37h-7.5zm2.5 5v19h-15.453l15.453-19z" fill="url(#0)" stroke="url(#3)"/></g><g fill="none"><path d="m6.133 40.5l28.367-35h6v35l-3.112-.013v-7.996h-20.594l-6.894 8.01h-3.767z" font-family="Bitstream Vera Sans" opacity=".7" text-align="start" font-weight="bold" line-height="125%" stroke="url(#1)" font-size="54.869"/><path d="m18.977 29.412l18.503.088-.091-22.601-18.411 22.512z" opacity=".385" fill-rule="evenodd" stroke="url(#2)"/></g></svg>

<?xml version="1.0" encoding="UTF-8" standalone="no"?>
<!-- Created with Inkscape (http://www.inkscape.org/) -->
<svg
   xmlns:dc="http://purl.org/dc/elements/1.1/"
   xmlns:cc="http://creativecommons.org/ns#"
   xmlns:rdf="http://www.w3.org/1999/02/22-rdf-syntax-ns#"
   xmlns:svg="http://www.w3.org/2000/svg"
   xmlns="http://www.w3.org/2000/svg"
   xmlns:xlink="http://www.w3.org/1999/xlink"
   xmlns:sodipodi="http://sodipodi.sourceforge.net/DTD/sodipodi-0.dtd"
   xmlns:inkscape="http://www.inkscape.org/namespaces/inkscape"
   width="48"
   height="48"
   id="svg1306"
   sodipodi:version="0.32"
   inkscape:version="0.46"
   sodipodi:docbase="/home/jimmac/src/cvs/tango-icon-theme/scalable/actions"
   sodipodi:docname="format-text-italic.svg"
   version="1.0"
   inkscape:output_extension="org.inkscape.output.svg.inkscape">
  <defs
     id="defs1308">
    <inkscape:perspective
       sodipodi:type="inkscape:persp3d"
       inkscape:vp_x="0 : 24 : 1"
       inkscape:vp_y="0 : 1000 : 0"
       inkscape:vp_z="48 : 24 : 1"
       inkscape:persp3d-origin="24 : 16 : 1"
       id="perspective46" />
    <radialGradient
       inkscape:collect="always"
       xlink:href="#linearGradient8662"
       id="radialGradient2494"
       gradientUnits="userSpaceOnUse"
       gradientTransform="matrix(1,0,0,0.536723,6.419148e-15,16.87306)"
       cx="24.837126"
       cy="36.421127"
       fx="24.837126"
       fy="36.421127"
       r="15.644737" />
    <linearGradient
       inkscape:collect="always"
       id="linearGradient3118">
      <stop
         style="stop-color:#000000;stop-opacity:1;"
         offset="0"
         id="stop3120" />
      <stop
         style="stop-color:#000000;stop-opacity:0;"
         offset="1"
         id="stop3122" />
    </linearGradient>
    <linearGradient
       id="linearGradient2243">
      <stop
         id="stop2245"
         offset="0"
         style="stop-color:#2a5387;stop-opacity:1" />
      <stop
         id="stop2247"
         offset="1"
         style="stop-color:#3465a4;stop-opacity:1;" />
    </linearGradient>
    <linearGradient
       inkscape:collect="always"
       id="linearGradient2233">
      <stop
         style="stop-color:#ffffff;stop-opacity:1;"
         offset="0"
         id="stop2235" />
      <stop
         style="stop-color:#ffffff;stop-opacity:0;"
         offset="1"
         id="stop2237" />
    </linearGradient>
    <linearGradient
       id="linearGradient3682">
      <stop
         style="stop-color:#497fc6;stop-opacity:1;"
         offset="0"
         id="stop3684" />
      <stop
         style="stop-color:#90b3d9;stop-opacity:1;"
         offset="1"
         id="stop3686" />
    </linearGradient>
    <linearGradient
       id="linearGradient2834">
      <stop
         style="stop-color:#ffffff;stop-opacity:1;"
         offset="0"
         id="stop2836" />
      <stop
         style="stop-color:#b3b3b3;stop-opacity:0.0000000;"
         offset="1.0000000"
         id="stop2838" />
    </linearGradient>
    <linearGradient
       inkscape:collect="always"
       id="linearGradient8662">
      <stop
         style="stop-color:#000000;stop-opacity:1;"
         offset="0"
         id="stop8664" />
      <stop
         style="stop-color:#000000;stop-opacity:0;"
         offset="1"
         id="stop8666" />
    </linearGradient>
    <linearGradient
       inkscape:collect="always"
       xlink:href="#linearGradient2233"
       id="linearGradient2327"
       gradientUnits="userSpaceOnUse"
       gradientTransform="translate(5.000006,1)"
       x1="30.123499"
       y1="28.5"
       x2="30.916004"
       y2="5.3994164" />
    <linearGradient
       inkscape:collect="always"
       xlink:href="#linearGradient2834"
       id="linearGradient2330"
       gradientUnits="userSpaceOnUse"
       gradientTransform="translate(6.000004,1)"
       x1="20.846664"
       y1="15.432576"
       x2="21.077463"
       y2="61.926037" />
    <linearGradient
       inkscape:collect="always"
       xlink:href="#linearGradient3682"
       id="linearGradient2333"
       gradientUnits="userSpaceOnUse"
       gradientTransform="translate(6.000004,1)"
       x1="29.033241"
       y1="36.44521"
       x2="14.33379"
       y2="9.4596548" />
    <linearGradient
       inkscape:collect="always"
       xlink:href="#linearGradient2243"
       id="linearGradient2335"
       gradientUnits="userSpaceOnUse"
       gradientTransform="translate(6.000004,4)"
       x1="22.125"
       y1="34.962811"
       x2="22.125"
       y2="6.25" />
    <radialGradient
       inkscape:collect="always"
       xlink:href="#linearGradient8662"
       id="radialGradient2499"
       gradientUnits="userSpaceOnUse"
       gradientTransform="matrix(1,0,0,0.536723,1.528049e-13,16.87306)"
       cx="24.837126"
       cy="36.421127"
       fx="24.837126"
       fy="36.421127"
       r="15.644737" />
    <radialGradient
       inkscape:collect="always"
       xlink:href="#linearGradient8662"
       id="radialGradient2503"
       gradientUnits="userSpaceOnUse"
       gradientTransform="matrix(1,0,0,0.536723,-2.399233e-14,16.87306)"
       cx="24.837126"
       cy="36.421127"
       fx="24.837126"
       fy="36.421127"
       r="15.644737" />
    <linearGradient
       inkscape:collect="always"
       xlink:href="#linearGradient3118"
       id="linearGradient3124"
       x1="27.0625"
       y1="42.001186"
       x2="27.0625"
       y2="37.981052"
       gradientUnits="userSpaceOnUse"
       gradientTransform="matrix(1,0,0,0.555556,0,18.66667)" />
  </defs>
  <sodipodi:namedview
     id="base"
     pagecolor="#ffffff"
     bordercolor="#666666"
     borderopacity="0.20784314"
     inkscape:pageopacity="0.0"
     inkscape:pageshadow="2"
     inkscape:zoom="4"
     inkscape:cx="11.321773"
     inkscape:cy="-4.1247834"
     inkscape:current-layer="layer2"
     showgrid="false"
     inkscape:grid-bbox="true"
     inkscape:document-units="px"
     showguides="false"
     inkscape:guide-bbox="true"
     inkscape:window-width="1041"
     inkscape:window-height="818"
     inkscape:window-x="393"
     inkscape:window-y="30"
     inkscape:grid-points="true"
     stroke="#204a87"
     fill="#2e3436"
     showborder="true"
     inkscape:showpageshadow="false">
    <sodipodi:guide
       orientation="vertical"
       position="14.406922"
       id="guide2257" />
    <sodipodi:guide
       orientation="horizontal"
       position="41.565351"
       id="guide2259" />
    <sodipodi:guide
       orientation="vertical"
       position="29.03324"
       id="guide2261" />
    <sodipodi:guide
       orientation="vertical"
       position="19.964923"
       id="guide2265" />
    <sodipodi:guide
       orientation="horizontal"
       position="31.739108"
       id="guide2267" />
    <sodipodi:guide
       orientation="horizontal"
       position="28.59445"
       id="guide2269" />
    <sodipodi:guide
       orientation="vertical"
       position="24.133423"
       id="guide2271" />
    <sodipodi:guide
       orientation="horizontal"
       position="6.0450673"
       id="guide2266" />
    <inkscape:grid
       id="GridFromPre046Settings"
       type="xygrid"
       originx="0px"
       originy="0px"
       spacingx="0.5px"
       spacingy="0.5px"
       color="#0000ff"
       empcolor="#0000ff"
       opacity="0.2"
       empopacity="0.4"
       empspacing="2"
       visible="true"
       enabled="true" />
  </sodipodi:namedview>
  <metadata
     id="metadata1311">
    <rdf:RDF>
      <cc:Work
         rdf:about="">
        <dc:format>image/svg+xml</dc:format>
        <dc:type
           rdf:resource="http://purl.org/dc/dcmitype/StillImage" />
        <dc:title>Italic</dc:title>
        <dc:date>2006-01-04</dc:date>
        <dc:creator>
          <cc:Agent>
            <dc:title>Lapo Calamandrei</dc:title>
          </cc:Agent>
        </dc:creator>
        <dc:source>http://tango-project.org</dc:source>
        <dc:subject>
          <rdf:Bag>
            <rdf:li>text</rdf:li>
            <rdf:li>a</rdf:li>
            <rdf:li>italic</rdf:li>
            <rdf:li>cursive</rdf:li>
            <rdf:li>write</rdf:li>
            <rdf:li>letter</rdf:li>
          </rdf:Bag>
        </dc:subject>
        <cc:license
           rdf:resource="http://creativecommons.org/licenses/publicdomain/" />
      </cc:Work>
      <cc:License
         rdf:about="http://creativecommons.org/licenses/publicdomain/">
        <cc:permits
           rdf:resource="http://creativecommons.org/ns#Reproduction" />
        <cc:permits
           rdf:resource="http://creativecommons.org/ns#Distribution" />
        <cc:permits
           rdf:resource="http://creativecommons.org/ns#DerivativeWorks" />
      </cc:License>
    </rdf:RDF>
  </metadata>
  <g
     inkscape:groupmode="layer"
     id="layer5"
     inkscape:label="Shadow"
     style="display:inline">
    <path
       sodipodi:type="arc"
       style="opacity:0.15;color:#000000;fill:url(#radialGradient2494);fill-opacity:1;fill-rule:evenodd;stroke:none;stroke-width:1;stroke-linecap:butt;stroke-linejoin:miter;marker:none;marker-start:none;marker-mid:none;marker-end:none;stroke-miterlimit:10;stroke-dasharray:none;stroke-dashoffset:0;stroke-opacity:1;visibility:visible;display:inline;overflow:visible"
       id="path2492"
       sodipodi:cx="24.837126"
       sodipodi:cy="36.421127"
       sodipodi:rx="15.644737"
       sodipodi:ry="8.3968935"
       d="M 40.481863 36.421127 A 15.644737 8.3968935 0 1 1  9.1923885,36.421127 A 15.644737 8.3968935 0 1 1  40.481863 36.421127 z"
       transform="matrix(1.470144,0,0,0.535474,-12.76416,20.91534)"
       inkscape:r_cx="true"
       inkscape:r_cy="true" />
  </g>
  <g
     inkscape:groupmode="layer"
     id="layer2"
     inkscape:label="A"
     style="display:inline">
    <path
       sodipodi:nodetypes="ccccccccccccc"
       style="fill:url(#linearGradient2333);fill-opacity:1;fill-rule:evenodd;stroke:url(#linearGradient2335);stroke-width:1;stroke-linecap:butt;stroke-linejoin:miter;stroke-miterlimit:4;stroke-dasharray:none;stroke-opacity:1"
       d="M 34,4.5 L 4,41.5 L 10.500004,41.5 L 16.990516,33.5 L 36.5,33.5 L 36.500004,41.5 L 41.5,41.5 L 41.5,4.5 L 34,4.5 z M 36.5,9.5 L 36.5,28.5 L 21.047086,28.5 L 36.5,9.5 z "
       id="path2211" />
    <path
       sodipodi:nodetypes="ccccccccc"
       id="path2237"
       d="M 6.1325825,40.5 L 34.5,5.5 L 40.5,5.5 L 40.5,40.5 L 37.388273,40.48699 L 37.388273,32.490985 L 16.793787,32.490985 L 9.8994954,40.5 L 6.1325825,40.5 z "
       style="font-size:54.8693924px;font-style:normal;font-variant:normal;font-weight:bold;font-stretch:normal;text-align:start;line-height:125%;writing-mode:lr-tb;text-anchor:start;opacity:0.7;fill:none;fill-opacity:1;stroke:url(#linearGradient2330);stroke-width:1;stroke-linecap:butt;stroke-linejoin:miter;stroke-miterlimit:4;stroke-dasharray:none;stroke-opacity:1;display:inline;font-family:Bitstream Vera Sans" />
    <path
       style="opacity:0.38461538;fill:none;fill-opacity:1;fill-rule:evenodd;stroke:url(#linearGradient2327);stroke-width:1;stroke-linecap:butt;stroke-linejoin:miter;stroke-miterlimit:4;stroke-dasharray:none;stroke-opacity:1"
       d="M 18.976888,29.411612 L 37.47949,29.5 L 37.388273,6.8994165 L 18.976888,29.411612 z "
       id="path2239"
       sodipodi:nodetypes="cccc" />
  </g>
</svg>
